X: 6
T: Dr. Gilbert's
R: reel
M: 4/4
L: 1/8
K: Edor
gf|eB~B2 BABc|dBAF AFDf|eB~B2 Bdgb|afdf efgf|eB~B2 BABc|dBAF AFDd|Be~e2 Begb|afdf ef:||:gf|eB~B2 gB~B2|defa afdf|~g2bg faaf|~e2fd eB~B2|afdf edBc|dBAF AFDd|Be~e2 Begb|afdf ef:|


Tune 129	Setting 26696

